src/actions/24/format-border-style.svg

<svg xmlns="http://www.w3.org/2000/svg" viewBox="0 0 24 24">
  <defs id="defs3051">
    <style type="text/css" id="current-color-scheme">
      .ColorScheme-Text {
        color:#2e3440;
      }
      </style>
  </defs>
 <path style="fill:currentColor;fill-opacity:1;stroke:none" 
     d="M 12.996094 4.0019531 L 5.6699219 11.328125 L 5.6679688 11.324219 L 4.2539062 12.738281 L 4.2558594 12.742188 L 4.0058594 12.992188 L 4 12.992188 L 4 17 L 5 17 L 7 17 L 8.0078125 17 L 8.2597656 16.748047 L 8.6132812 16.394531 L 9.3203125 15.6875 L 9.6757812 15.333984 L 16.998047 8.0039062 L 13 4.0039062 L 12.996094 4.0019531 z M 12.412109 5.9980469 L 15 8.5878906 L 10.732422 12.855469 L 8.1445312 10.265625 L 12.412109 5.9980469 z M 7.4375 10.972656 L 10.025391 13.5625 L 9.3183594 14.269531 L 6.7285156 11.679688 L 7.0019531 11.408203 L 7.4375 10.972656 z M 6.0214844 12.386719 L 8.6113281 14.976562 L 8.6152344 14.978516 L 7.9082031 15.685547 L 7.9042969 15.683594 L 5.3144531 13.09375 L 6.0214844 12.386719 z M 4 19 L 4 20 L 20 20 L 20 19 L 4 19 z "
     class="ColorScheme-Text"
     />
</svg>

<svg viewBox="0 0 24 24" xmlns="http://www.w3.org/2000/svg">
 <defs>
  <style type="text/css">.ColorScheme-Text {
        color:#2e3440;
      }</style>
 </defs>
 <path class="ColorScheme-Text" d="m12.996 4.002-7.3262 7.3262-0.0019531-0.003906-1.4141 1.4141 0.0019532 0.003907-0.25 0.25h-0.0058594v4.0078h1 2 1.0078l1.3125-1.3125 0.35547-0.35352 7.3223-7.3301-3.998-4-0.003906-0.0019531zm-0.58398 1.9961 2.5879 2.5898-4.2676 4.2676-2.5879-2.5898 4.2676-4.2676zm-4.9746 4.9746 2.5879 2.5898-0.70703 0.70703-2.5898-2.5898 0.27344-0.27148 0.43555-0.43555zm-1.416 1.4141 2.5898 2.5898 0.0039063 0.001954-0.70703 0.70703-0.0039062-0.001953-2.5898-2.5898 0.70703-0.70703zm-2.0215 6.6133v1h16v-1h-16z" fill="currentColor"/>
</svg>
